X:83
T:Langstrom's Pony
Z: id:dc-jig-67
M:6/8
L:1/8
K:A Mixolydian
fed cAA|EAA cAA|fed cAA|BGB dcB|!
fed cAA|EAA cAA|faf gfe|dBG Bcd:|!
cee dff|cee ecA|cee dfa|BGG Bcd|!
cee dff|cee efg|faf gfe|dBG Bcd:|!
Ace a^ga|ecA ecA|GBd gfg|BGG Bcd|!
eaf g2e|f2d ecA|a2f g2e|dBG Bcd:|!
AEA A2e|cAc ecB|AEA AB=c|BGB dcB|!
AEA A2e|cAc efg|faf gfe|dBG Bcd:|!

